!!!!SEGMENT:pl-cz--iii-197--001_elsner-jozef-missa-c-op-22-kyrie.krn
!!!id: 18xx:260
!!!COM: Elsner, Józef
!!!OTL: Missa C op. 22 - Kyrie
!!!PDT:
!!!SMS-siglum: PL-CZ
!!!SMS-shelfmark: III-197
!!!NIFC-rismID:
!!!URL-scan: http://repozytorium.nifc.pl/skany/pl-cz-nut--iii-197
!!!ONB-nifc: UWAGA: części Mszy: Kyrie, Gloria, Graduale, Credo, Offertorio, Sanctus, Benedictus, Agnus
!!!ENC: Andrzej Kubiczek
!!!END: 2020-04-09
**kern	**kern	**text	**kern	**text	**kern	**text	**kern	**text	**kern	**kern	**kern	**kern	**kern	**kern	**kern
*part12	*part11	*part11	*part10	*part10	*part9	*part9	*part8	*part8	*part7	*part6	*part5	*part4	*part3	*part2	*part1
*staff12	*staff11	*staff11	*staff10	*staff10	*staff9	*staff9	*staff8	*staff8	*staff7	*staff6	*staff5	*staff4	*staff3	*staff2	*staff1
*I"Baſso.	*I"Baſso 2do	*	*I"Baſso 1mo	*	*I"Tenore 2do	*	*I"Tenore 1mo	*	*I"Tympano in C G	*I"Clarino 2do in C	*I"Clarino 1mo in C	*I"Corno 2do in C	*I"Corno 1mo in C	*I"Corno 2do in F	*I"Corno 1mo in F
*I'Cb	*I'B II	*	*I'B I	*	*I'T II	*	*I'T I	*	*I'Timp	*I'Clno II in C	*I'Clno I in C	*I'Cor II in C	*I'Cor I in C	*I'Cor II in F	*I'Cor I in F
*clefF4	*clefF4	*	*clefF4	*	*clefC4	*	*clefC4	*	*clefF4	*clefG2	*clefG2	*clefG2	*clefG2	*clefG2	*clefG2
*	*	*	*	*	*	*	*	*	*	*	*	*ITrd0c0	*ITrd0c0	*ITrd4c7	*ITrd4c7
*k[]	*k[]	*	*k[]	*	*k[]	*	*k[]	*	*k[]	*k[]	*k[]	*k[]	*k[]	*k[b-]	*k[b-]
*M2/4	*M2/4	*	*M2/4	*	*M2/4	*	*M2/4	*	*M2/4	*M2/4	*M2/4	*M2/4	*M2/4	*M2/4	*M2/4
=1	=1	=1	=1	=1	=1	=1	=1	=1	=1	=1	=1	=1	=1	=1	=1
*	*	*	*	*	*	*	*	*	*	*	*	*	*4\right	*4\right	*4\right
!	!	!	!	!	!	!	!	!	!LO:TX:a:i:t=Andante.	!LO:TX:a:i:t=Andante.	!LO:TX:a:i:t=Andante.	!	!	!	!LO:SIC:o:s=:v:laseczki nut w dół z prawej strony
!LO:TX:a:i:t=Andante.	!LO:TX:a:i:t=Andante	!	!LO:TX:a:i:t=Andante.	!	!LO:TX:a:i:t=Andante	!	!LO:TX:a:i:t=Andante	!	!LO:TX:a:B:t=Tacet.	!LO:TX:a:B:t=Tacet.	!LO:TX:a:B:t=Tacet.	!LO:TX:a:i:t=Andante.	!LO:TX:a:i:t=Andante.	!LO:TX:a:i:t=Andante.	!LO:TX:a:i:t=Andante
4C;/	4r;	.	4r;	.	4r;	.	4r;	.	2ryy	2ryy	2ryy	4e;/	4cc;\	4c;/	4g;\
4r	8.C/	Ky-	4r	.	4r	.	4r	.	.	.	.	4r	4r	4r	4r
.	16C/	-ri-	.	.	.	.	.	.	.	.	.	.	.	.	.
=2	=2	=2	=2	=2	=2	=2	=2	=2	=2	=2	=2	=2	=2	=2	=2
!LO:TX:a:i:t=7.	!	!	!	!	!	!	!LO:TX:a:i:t=1.	!	!	!	!	!LO:TX:a:i:t=9.	!LO:TX:a:i:t=9.	!LO:TX:a:i:t=8.	!LO:TX:a:i:t=8.
!LO:N:vis=00	!	!	!	!	!	!	!	!	!	!	!	!LO:N:vis=00	!LO:N:vis=00	!LO:N:vis=00	!LO:N:vis=00
0r	[2C/	-e	4r	.	4r	.	2r	.	2ryy	2ryy	2ryy	0r	0r	0r	0r
!	!	!	!LO:SIC:o=:v:laseczki nut w dół z prawej strony	!	!	!	!	!	!	!	!	!	!	!	!
*	*	*	*8\right	*	*	*	*	*	*	*	*	*	*	*	*
.	.	.	8.E\	Ky-	8.G/	Ky-	.	.	.	.	.	.	.	.	.
*	*	*	*16\right	*	*	*	*	*	*	*	*	*	*	*	*
.	.	.	16E\	-ri-	16G/	-ri-	.	.	.	.	.	.	.	.	.
=3	=3	=3	=3	=3	=3	=3	=3	=3	=3	=3	=3	=3	=3	=3	=3
*	*	*	*4\right	*	*	*	*	*	*	*	*	*	*	*	*
.	2C/]	.	4F\	-e	4A/	-e	4r	.	2ryy	2ryy	2ryy	.	.	.	.
!	!	!	!	!	!	!	!LO:SIC:o=:v:laseczki nut w dół z prawej strony	!	!	!	!	!	!	!	!
*	*	*	*	*	*	*	*8\right	*	*	*	*	*	*	*	*
.	.	.	4E\	e-	4G/	e-	8.c\	Ky-	.	.	.	.	.	.	.
*	*	*	*	*	*	*	*16\right	*	*	*	*	*	*	*	*
.	.	.	.	.	.	.	16c\	-ri-	.	.	.	.	.	.	.
=4	=4	=4	=4	=4	=4	=4	=4	=4	=4	=4	=4	=4	=4	=4	=4
*	*	*	*2\right	*	*	*	*2\right	*	*	*	*	*	*	*	*
.	4C/	.	2G\	-lei-	[>2G/	-lei-	[2d\	-e	2ryy	2ryy	2ryy	.	.	.	.
.	4BB/	e-	.	.	.	.	.	.	.	.	.	.	.	.	.
=5	=5	=5	=5	=5	=5	=5	=5	=5	=5	=5	=5	=5	=5	=5	=5
*	*	*	*	*	*	*	*4\right	*	*	*	*	*	*	*	*
.	4C/	-lei-	2E\	.	4G/]	.	4d\]	.	2ryy	2ryy	2ryy	.	.	.	.
.	4AA/	.	.	.	4A/	.	4c\	e-	.	.	.	.	.	.	.
=6	=6	=6	=6	=6	=6	=6	=6	=6	=6	=6	=6	=6	=6	=6	=6
*	*2\right	*	*	*	*	*	*	*	*	*	*	*	*	*	*
!	!LO:SIC:o=:v:laseczki nut w dół z prawej strony	!	!	!	!	!	!	!	!	!	!	!	!	!	!
!LO:N:vis=0	!	!	!	!	!	!	!	!	!	!	!	!LO:N:vis=00	!LO:N:vis=00	!LO:N:vis=00	!LO:N:vis=00
1r	[2D\	.	[2F\	.	4F/	.	4A\	-lei-	2ryy	2ryy	2ryy	0r	0r	0r	0r
.	.	.	.	.	4A/	.	8.e\L	.	.	.	.	.	.	.	.
.	.	.	.	.	.	.	16d\Jk	.	.	.	.	.	.	.	.
=7	=7	=7	=7	=7	=7	=7	=7	=7	=7	=7	=7	=7	=7	=7	=7
!	!	!	!	!	!LO:SIC:o=:v:laseczki nut w dół z prawej strony	!	!	!	!	!	!	!	!	!	!
*	*4\right	*	*	*	*4\right	*	*	*	*	*	*	*	*	*	*
.	4D\]	.	4F\]	.	4B\	.	4f\	.	2ryy	2ryy	2ryy	.	.	.	.
.	4C\	.	[4G\	.	4c\	.	4e\	.	.	.	.	.	.	.	.
=8	=8	=8	=8	=8	=8	=8	=8	=8	=8	=8	=8	=8	=8	=8	=8
!	!	!	!	!	!	!	!LO:LB:g=original	!	!	!	!	!	!	!	!
2r	4BB/	.	2G\]	.	4d\	.	4d\	.	2ryy	2ryy	2ryy	.	.	.	.
.	8.C/L	.	.	.	4c\	.	8.e\L	.	.	.	.	.	.	.	.
.	16E/Jk	.	.	.	.	.	16c\Jk	.	.	.	.	.	.	.	.
=9	=9	=9	=9	=9	=9	=9	=9	=9	=9	=9	=9	=9	=9	=9	=9
!	!LO:LB:g=original	!	!LO:LB:g=original	!	!LO:LB:g=original	!	!	!	!	!	!	!	!	!	!
4r	4G\	-son	4G\	-son	4B\	-son	4d\	-son	2ryy	2ryy	2ryy	.	.	.	.
4C/	8.C/	Ky-	4r	.	4r	.	4r	.	.	.	.	.	.	.	.
.	16C/	-ri-	.	.	.	.	.	.	.	.	.	.	.	.	.
=10	=10	=10	=10	=10	=10	=10	=10	=10	=10	=10	=10	=10	=10	=10	=10
!	!	!	!	!	!	!	!LO:TX:a:i:t=1	!	!	!	!	!	!	!	!
[2C/	[2C/	-e	4r	.	4r	.	2r	.	2ryy	2ryy	2ryy	2r	2r	4r	4r
*	*	*	*	*	*	*	*	*	*	*	*	*	*	*4\right	*
!	!	!	!	!	!	!	!	!	!	!	!	!	!	!LO:SIC:o:s=:v:laseczki nut w dół z prawej strony	!
.	.	.	8.E\	Ky-	8.G/	Ky-	.	.	.	.	.	.	.	4e\	4g\
.	.	.	16E\	-ri-	16G/	-ri-	.	.	.	.	.	.	.	.	.
=11	=11	=11	=11	=11	=11	=11	=11	=11	=11	=11	=11	=11	=11	=11	=11
2C/_	2C/_	.	4F\	-e	4A/	-e	4r	.	2ryy	2ryy	2ryy	4r	4r	4f\	4a\
.	.	.	4E\	e-	4G/	e-	8.c\	Ky-	.	.	.	4e/	4cc\	4c\	4g\
.	.	.	.	.	.	.	16c\	-ri-	.	.	.	.	.	.	.
=12	=12	=12	=12	=12	=12	=12	=12	=12	=12	=12	=12	=12	=12	=12	=12
*	*	*	*	*	*	*	*	*	*	*	*	*	*2\right	*2\right	*2\right
4C/]	4C/]	.	2G\	-lei-	2G/	-lei-	2d\	-e	2ryy	2ryy	2ryy	2g/	2dd\	2g\	2g\
!	!LO:SIC:o:s=:v:tekst słowny brak "elei" w słowie "eleison".	!	!	!	!	!	!	!	!	!	!	!	!	!	!
4BB/	4BB/	.	.	.	.	.	.	.	.	.	.	.	.	.	.
=13	=13	=13	=13	=13	=13	=13	=13	=13	=13	=13	=13	=13	=13	=13	=13
4C/	4C/	.	2E\	.	4G/	.	4d\	.	2ryy	2ryy	2ryy	2e/	4dd\	4g\	4g\
4AA/	4AA/	.	.	.	4A/	.	4c\	.	.	.	.	.	4cc\	4c\	4a\
=14	=14	=14	=14	=14	=14	=14	=14	=14	=14	=14	=14	=14	=14	=14	=14
*2\right	*	*	*	*	*	*	*	*	*	*	*	*	*	*	*
!LO:SIC:o=:v:laseczki nut w dół z prawej strony	!	!	!	!	!	!	!	!	!	!	!	!LO:TX:a:i:t=1	!	!	!
[2D\	[2D\	.	[2F\	.	4F/	.	4A\	.	2ryy	2ryy	2ryy	2r	4a\	2f\	2a\
*	*	*	*	*	*	*	*	*	*	*	*	*	*8\right	*	*
.	.	.	.	.	4A/	.	8.e\L	e-	.	.	.	.	8.ee\L	.	.
*	*	*	*	*	*	*	*	*	*	*	*	*	*16\right	*	*
.	.	.	.	.	.	.	16d\Jk	.	.	.	.	.	16dd\Jk	.	.
=15	=15	=15	=15	=15	=15	=15	=15	=15	=15	=15	=15	=15	=15	=15	=15
*4\right	*	*	*	*	*	*	*	*	*	*	*	*4\right	*	*	*
4D\]	4D\]	.	4F\]	.	4B\	.	4f\	-lei-	2ryy	2ryy	2ryy	4b\	4dd\	4f\	4f\
4C\	4C\	.	4G\	.	4c\	.	4e\	.	.	.	.	[4cc\	4ee\	4e\	4g\
=16	=16	=16	=16	=16	=16	=16	=16	=16	=16	=16	=16	=16	=16	=16	=16
!	!	!	!	!	!	!	!	!	!	!	!	!	!	!	!LO:LB:g=original
4F\	4F\	.	4A\	.	4c\	.	2d\	.	2ryy	2ryy	2ryy	4cc\]	2dd\	4f\	4a\
*8\right	*	*	*	*	*8\right	*	*	*	*	*	*	*8\right	*	*	*8\right
8.G\L	8.G\L	.	8.G\L	.	8.B\L	.	.	.	.	.	.	8.b\L	.	8.g\L	8.g\L
*16\right	*	*	*	*	*16\right	*	*	*	*	*	*	*16\right	*	*	*16\right
16F\Jk	16F\Jk	.	16A\Jk	.	16A\Jk	.	.	.	.	.	.	16a\Jk	.	16f\Jk	16a\Jk
=17	=17	=17	=17	=17	=17	=17	=17	=17	=17	=17	=17	=17	=17	=17	=17
!	!	!	!	!	!	!	!	!	!	!	!	!	!	!LO:LB:g=original	!
4E\	4E\	son.	4G#X\	-son	4B\	-son	4e\	-son	2ryy	2ryy	2ryy	4e/	4ee\	4e\	4g#X\
4r	4r	.	8.G#\	Ky-	8.B\	Ky-	4r	.	.	.	.	4r	4r	4r	4r
.	.	.	16G#\	-ri-	16B\	-ri-	.	.	.	.	.	.	.	.	.
=18	=18	=18	=18	=18	=18	=18	=18	=18	=18	=18	=18	=18	=18	=18	=18
!LO:TX:a:i:t=1.	!	!	!	!	!	!	!	!	!	!	!	!LO:TX:a:i:t=1.	!LO:TX:a:i:t=1	!LO:TX:a:i:t=1	!LO:TX:a:i:t=1.
2r	4r	.	2G#X\	-e	[2B\	-e	4r	.	2ryy	2ryy	2ryy	2r	2r	2r	2r
.	8.E\	Ky-	.	.	.	.	8.e\	Ky-	.	.	.	.	.	.	.
.	16E\	-ri-	.	.	.	.	16e\	-ri-	.	.	.	.	.	.	.
=19	=19	=19	=19	=19	=19	=19	=19	=19	=19	=19	=19	=19	=19	=19	=19
!	!LO:LB:g=original	!	!LO:LB:g=original	!	!	!	!LO:LB:g=original	!	!	!	!	!LO:LB:g=original	!	!	!
!	!	!	!	!	!	!	!	!	!	!	!	!	!LO:SIC:o:s:=:v:brak taktu 19 (zgodnie z pozostałymi partiami Corno)	!	!
4r	4D\	-e	2Gn\	e-	4B\]	.	4f\	-e	2ryy	2ryy	2ryy	4r	2ryy	4r	4r
4C/	4C\	e-	.	.	4c\	e-	4e\	e-	.	.	.	4cc\	.	4c/	4g\
=20	=20	=20	=20	=20	=20	=20	=20	=20	=20	=20	=20	=20	=20	=20	=20
!	!	!	!	!	!LO:LB:g=original	!	!	!	!	!	!	!	!LO:LB:g=original	!	!
4F\	(4F\	-lei-	(4A\	-lei-	4c\	-lei-	2d\	-lei-	2ryy	2ryy	2ryy	4cc\	2dd\	4f\	4a\
4G\	4G\)	.	4G\)	.	4B\	.	.	.	.	.	.	4b\	.	4g\	4g\
=21	=21	=21	=21	=21	=21	=21	=21	=21	=21	=21	=21	=21	=21	=21	=21
!	!	!	!	!	!	!	!	!	!	!	!	!	!	!LO:SIC:o=:v:niejednoznaczny zapis wysokości dźwięku	!
4C/	4C/	-son	4E\	-son	4c\	-son	4c\	-son	2ryy	2ryy	2ryy	4cc\	4cc\	4e\	4g\
8.C/L	4r	.	4r	.	4r	.	4r	.	.	.	.	8.e/L	8.cc\L	8.c/L	8.g\L
16C/Jk	.	.	.	.	.	.	.	.	.	.	.	16e/Jk	16cc\Jk	16c/Jk	16g\Jk
=22	=22	=22	=22	=22	=22	=22	=22	=22	=22	=22	=22	=22	=22	=22	=22
*	*	*	*	*	*2\right	*	*	*	*	*	*	*	*	*	*
4AA/	4AA/	Chri-	2E\	Chri-	[2A\	Chri-	2c\	Chri-	2ryy	2ryy	2ryy	4e/	4cc\	4A/	4a\
4r	4C/	-ste	.	.	.	.	.	.	.	.	.	4r	4r	4r	4r
=23	=23	=23	=23	=23	=23	=23	=23	=23	=23	=23	=23	=23	=23	=23	=23
!LO:TX:a:i:t=7.	!	!	!	!	!	!	!	!	!	!	!	!LO:TX:a:i:t=7.	!LO:TX:a:i:t=7.	!LO:TX:a:i:t=7.	!LO:TX:a:i:t=7.
!LO:N:vis=00	!	!	!	!	!	!	!	!	!	!	!	!LO:N:vis=00	!LO:N:vis=00	!LO:N:vis=00	!LO:N:vis=00
0r	2E\	Chri-	2E\	-ste	4A\]	.	2B\	-ste	2ryy	2ryy	2ryy	0r	0r	0r	0r
.	.	.	.	.	4G\	-ste	.	.	.	.	.	.	.	.	.
=24	=24	=24	=24	=24	=24	=24	=24	=24	=24	=24	=24	=24	=24	=24	=24
*	*	*	*	*ij	*	*ij	*	*ij	*	*	*	*	*	*	*
.	4C/	.	2G\	Chri-	[2c\	Chri-	2e\	Chri-	2ryy	2ryy	2ryy	.	.	.	.
.	4E/	.	.	.	.	.	.	.	.	.	.	.	.	.	.
=25	=25	=25	=25	=25	=25	=25	=25	=25	=25	=25	=25	=25	=25	=25	=25
.	2G\	-ste	2G\	-ste	4c\]	.	2d\	-ste	2ryy	2ryy	2ryy	.	.	.	.
*	*	*	*	*Xij	*	*	*	*Xij	*	*	*	*	*	*	*
.	.	.	.	.	4B\	-ste	.	.	.	.	.	.	.	.	.
*	*	*	*	*	*	*Xij	*	*	*	*	*	*	*	*	*
=26	=26	=26	=26	=26	=26	=26	=26	=26	=26	=26	=26	=26	=26	=26	=26
.	(4E\	e-	2B\	e-	(4e\	e-	[2g\	e-	2ryy	2ryy	2ryy	.	.	.	.
.	4G\)	.	.	.	4d\)	.	.	.	.	.	.	.	.	.	.
=27	=27	=27	=27	=27	=27	=27	=27	=27	=27	=27	=27	=27	=27	=27	=27
!LO:N:vis=0	!	!	!	!	!	!	!	!	!	!	!	!LO:N:vis=0	!LO:N:vis=0	!LO:N:vis=0	!LO:N:vis=0
1r	2A\	-lei-	2c\	-lei-	2c\	-lei-	4g\]	.	2ryy	2ryy	2ryy	1r	1r	1r	1r
.	.	.	.	.	.	.	[4f\	-lei-	.	.	.	.	.	.	.
=28	=28	=28	=28	=28	=28	=28	=28	=28	=28	=28	=28	=28	=28	=28	=28
.	4A-X\	.	4B\	.	4d\	.	4f\]	.	2ryy	2ryy	2ryy	.	.	.	.
.	4G\	.	4c\	.	4e\	.	[4e\	.	.	.	.	.	.	.	.
=29	=29	=29	=29	=29	=29	=29	=29	=29	=29	=29	=29	=29	=29	=29	=29
2r	4F\	.	4.A\	.	4.A\	.	8e\L]	.	2ryy	2ryy	2ryy	2r	2r	2r	2r
.	.	.	.	.	.	.	8d\	.	.	.	.	.	.	.	.
.	4E\	-son	.	.	.	.	8c\	-son	.	.	.	.	.	.	.
.	.	.	8G#X\	-son	8B\	-son	8d\J	.	.	.	.	.	.	.	.
=30	=30	=30	=30	=30	=30	=30	=30	=30	=30	=30	=30	=30	=30	=30	=30
!	!LO:LB:g=original	!	!	!	!	!	!	!	!	!	!	!	!	!	!
4AA/	(4AA/	Chri-	2E\	Chri-	[2A\	Chr-	2c\	Chri-	2ryy	2ryy	2ryy	4e/	4cc\	4A/	4a\
4r	4C/)	.	.	.	.	.	.	.	.	.	.	4r	4r	4r	4r
=31	=31	=31	=31	=31	=31	=31	=31	=31	=31	=31	=31	=31	=31	=31	=31
!LO:TX:a:i:t=1	!	!	!	!	!	!	!	!	!	!	!	!LO:TX:a:i:t=1	!	!LO:TX:a:i:t=1	!
2r	2E\	-ste	2E\	-ste	4A\]	.	2B\	-ste	2ryy	2ryy	2ryy	2r	2r	2r	2r
.	.	.	.	.	4G/	-ste	.	.	.	.	.	.	.	.	.
=32	=32	=32	=32	=32	=32	=32	=32	=32	=32	=32	=32	=32	=32	=32	=32
!	!	!	!LO:LB:g=original	!	!	!	!LO:LB:g=original	!	!	!	!	!	!	!	!
*	*	*	*	*ij	*	*	*	*ij	*	*	*	*	*	*	*
4C/	(4C/	e-	2G\	Chri-	[2c\	Chri-	2e\	Chri-	2ryy	2ryy	2ryy	4cc\	4ee\	4c/	4g\
4r	4E/)	.	.	.	.	.	.	.	.	.	.	4r	4r	4r	4r
=33	=33	=33	=33	=33	=33	=33	=33	=33	=33	=33	=33	=33	=33	=33	=33
!	!	!	!	!	!LO:LB:g=original	!	!	!	!	!	!	!	!	!	!
!LO:TX:a:i:t=1.	!	!	!	!	!	!	!	!	!	!	!	!	!	!LO:TX:a:i:t=2.	!LO:TX:a:i:t=2.
!	!	!	!	!	!	!	!	!	!	!	!	!	!	!LO:N:vis=0	!LO:N:vis=0
2r	2G\	-lei-	2G\	-ste	4c\]	.	2d\	-ste	2ryy	2ryy	2ryy	4r	4r	1r	1r
*	*	*	*	*Xij	*	*	*	*Xij	*	*	*	*	*	*	*
.	.	.	.	.	4B\	-ste	.	.	.	.	.	8.g/L	8.dd\L	.	.
.	.	.	.	.	.	.	.	.	.	.	.	16g/Jk	16dd\Jk	.	.
=34	=34	=34	=34	=34	=34	=34	=34	=34	=34	=34	=34	=34	=34	=34	=34
4r	4E\	.	2B\	e-	4e\	e-	[2g\	e-	2ryy	2ryy	2ryy	4e/	4ee\	.	.
8.G\L	4G\	.	.	.	4d\	.	.	.	.	.	.	4r	4r	.	.
16G\Jk	.	.	.	.	.	.	.	.	.	.	.	.	.	.	.
=35	=35	=35	=35	=35	=35	=35	=35	=35	=35	=35	=35	=35	=35	=35	=35
!	!	!	!	!	!	!	!	!	!	!	!	!	!	!	!LO:LB:g=original
!LO:N:vis=1	!	!	!	!	!	!	!	!	!	!	!	!	!	!	!
2A\	2A\	.	2c\	-lei-	2c\	-lei-	4g\]	.	2ryy	2ryy	2ryy	4r	4r	4r	4r
.	.	.	.	.	.	.	[4f\	-lei-	.	.	.	8.cc\L	8.cc\L	8.A/L	8.f\L
.	.	.	.	.	.	.	.	.	.	.	.	16cc\Jk	16cc\Jk	16A/Jk	16f\Jk
=36	=36	=36	=36	=36	=36	=36	=36	=36	=36	=36	=36	=36	=36	=36	=36
!	!	!	!	!	!	!	!	!	!	!	!	!	!	!LO:LB:g=original	!
4A-X^\	4A-X\	.	4B\	.	4d\	.	4f\]	.	2ryy	2ryy	2ryy	4b\	4dd\	4F/	4f\
4G\	4G\	.	4c\	.	4e\	.	[4e\	.	.	.	.	8cc\	8ee\	8c/	8c\
.	.	.	.	.	.	.	.	.	.	.	.	8r	8r	8r	8r
=37	=37	=37	=37	=37	=37	=37	=37	=37	=37	=37	=37	=37	=37	=37	=37
!LO:LB:g=original	!	!	!	!	!	!	!	!	!	!	!	!LO:LB:g=original	!LO:LB:g=original	!	!
!	!	!	!	!	!	!	!	!	!	!	!	!	!	!LO:TX:a:i:t=1	!
4F\	4F\	.	4.A\	.	4.A\	.	8e\L]	.	2ryy	2ryy	2ryy	4r	4r	2r	2r
.	.	.	.	.	.	.	8d\	.	.	.	.	.	.	.	.
4E\	4E\	.	.	.	.	.	8c\	.	.	.	.	8.e/L	8.ee\L	.	.
.	.	.	8G#X\	-son	8B\	.	8d\J	.	.	.	.	.	.	.	.
.	.	.	.	.	.	.	.	.	.	.	.	16e/Jk	16ee\Jk	.	.
=38	=38	=38	=38	=38	=38	=38	=38	=38	=38	=38	=38	=38	=38	=38	=38
4AA/	4AA/	-son	2E\	e-	[2A\	.	2c\	.	2ryy	2ryy	2ryy	[2e/	2ee\	4r	4r
4C/	4C/	e-	.	.	.	.	.	.	.	.	.	.	.	8.a\L	8.cc\L
.	.	.	.	.	.	.	.	.	.	.	.	.	.	16a\Jk	16cc\Jk
=39	=39	=39	=39	=39	=39	=39	=39	=39	=39	=39	=39	=39	=39	=39	=39
4.E\	4.E\	-lei-	2E\	-lei-	4A\]	.	4B\	-son	2ryy	2ryy	2ryy	2e/]	2ee\	4a\	2bX\
.	.	.	.	.	4G#X\	.	[4e\	e-	.	.	.	.	.	4g#X\	.
8D\	8D\	.	.	.	.	.	.	.	.	.	.	.	.	.	.
=40	=40	=40	=40	=40	=40	=40	=40	=40	=40	=40	=40	=40	=40	=40	=40
4C\	4C/	-son	4E\	.	4.A\	-son	8e\L]	.	2ryy	2ryy	2ryy	4e/	4ee\	4a\	4.cc\
.	.	.	.	.	.	.	8c\	.	.	.	.	.	.	.	.
4D\	4C/	e-	4F\	.	.	.	8A\	.	.	.	.	4r	4dd\	4r	.
.	.	.	.	.	(8B\	e-	8d\J	.	.	.	.	.	.	.	8bX\
=41	=41	=41	=41	=41	=41	=41	=41	=41	=41	=41	=41	=41	=41	=41	=41
2E\	2E\	-lei-	2E\	.	4A\)	-lei-	(4c\	-lei-	2ryy	2ryy	2ryy	4r	4cc\	4r	4a\
.	.	.	.	.	4G#X\	.	4B\)	.	.	.	.	8.e/L	4b\	8.e\L	4g#X\
.	.	.	.	.	.	.	.	.	.	.	.	16e/Jk	.	16e\Jk	.
=42	=42	=42	=42	=42	=42	=42	=42	=42	=42	=42	=42	=42	=42	=42	=42
2AA/	4AA/	-son	4E\	-son	4A\	-son	4A\	-son	2ryy	2ryy	2ryy	2e/	2cc\	2A/	2a\
.	8r	.	8r	.	8r	.	8r	.	.	.	.	.	.	.	.
.	8AA/	e-	8C\	e-	8E/	e-	8A\	e-	.	.	.	.	.	.	.
=43	=43	=43	=43	=43	=43	=43	=43	=43	=43	=43	=43	=43	=43	=43	=43
!	!	!	!	!	!	!	!LO:LB:g=original	!	!	!	!	!	!	!	!
4r	2GG/	-lei-	2D\	-lei-	2F/	-lei-	2B\	-lei-	2ryy	2ryy	2ryy	4r	4r	4r	4r
8.GG/L	.	.	.	.	.	.	.	.	.	.	.	8.b\L	8.dd\L	8.f\L	8.g\L
16GG/Jk	.	.	.	.	.	.	.	.	.	.	.	16b\Jk	16dd\Jk	16f\Jk	16g\Jk
=44	=44	=44	=44	=44	=44	=44	=44	=44	=44	=44	=44	=44	=44	=44	=44
4C/	4C/	-son	4C/	-son	4E/	-son	4c\	-son	2ryy	2ryy	2ryy	4cc\	4cc\	4e\	4g\
4r	8.C/	Ky-	4r	.	4r	.	4r	.	.	.	.	4r	4r	4r	4r
.	16C/	-ri-	.	.	.	.	.	.	.	.	.	.	.	.	.
=45	=45	=45	=45	=45	=45	=45	=45	=45	=45	=45	=45	=45	=45	=45	=45
!	!	!	!LO:LB:g=original	!	!LO:LB:g=original	!	!	!	!	!	!	!	!	!	!
!LO:TX:a:i:t=7.	!	!	!	!	!	!	!LO:TX:a:i:t=1.	!	!	!	!	!LO:TX:a:i:t=9.	!LO:TX:a:i:t=9.	!LO:TX:a:i:t=8.	!LO:TX:a:i:t=8.
!LO:N:vis=00	!	!	!	!	!	!	!	!	!	!	!	!LO:N:vis=00	!LO:N:vis=00	!LO:N:vis=00	!LO:N:vis=00
0r	[>2C/	-e	4r	.	4r	.	2r	.	2ryy	2ryy	2ryy	0r	0r	0r	0r
.	.	.	8.E\	Ky-	8.G/	Ky-	.	.	.	.	.	.	.	.	.
.	.	.	16E\	-ri-	16G/	-ri-	.	.	.	.	.	.	.	.	.
=46	=46	=46	=46	=46	=46	=46	=46	=46	=46	=46	=46	=46	=46	=46	=46
.	2C/_>	.	4F\	-e	4A/	-e	4r	.	2ryy	2ryy	2ryy	.	.	.	.
.	.	.	4E\	e-	[>4G/	e-	8.c\	Ky-	.	.	.	.	.	.	.
.	.	.	.	.	.	.	16c\	-ri-	.	.	.	.	.	.	.
=47	=47	=47	=47	=47	=47	=47	=47	=47	=47	=47	=47	=47	=47	=47	=47
.	4C/]	.	2G\	-lei-	2G/]	-lei-	[2d\	-e	2ryy	2ryy	2ryy	.	.	.	.
.	4BB/	e-	.	.	.	.	.	.	.	.	.	.	.	.	.
=48	=48	=48	=48	=48	=48	=48	=48	=48	=48	=48	=48	=48	=48	=48	=48
.	4C/	-lei-	2E\	.	4G/	.	4d\]	.	2ryy	2ryy	2ryy	.	.	.	.
.	4AA/	.	.	.	4A/	.	4c\	e-	.	.	.	.	.	.	.
=49	=49	=49	=49	=49	=49	=49	=49	=49	=49	=49	=49	=49	=49	=49	=49
!LO:N:vis=0	!	!	!	!	!	!	!	!	!	!	!	!LO:N:vis=00	!LO:N:vis=00	!LO:N:vis=00	!LO:N:vis=00
1r	[2D\	.	2F\	.	4F/	.	4A\	-lei-	2ryy	2ryy	2ryy	0r	0r	0r	0r
.	.	.	.	.	4A/	.	8.e\L	.	.	.	.	.	.	.	.
.	.	.	.	.	.	.	16d\Jk	.	.	.	.	.	.	.	.
=50	=50	=50	=50	=50	=50	=50	=50	=50	=50	=50	=50	=50	=50	=50	=50
.	4D\]	.	4F\	.	4B\	.	4f\	.	2ryy	2ryy	2ryy	.	.	.	.
.	4C\	.	4G\	.	4c\	.	4e\	.	.	.	.	.	.	.	.
=51	=51	=51	=51	=51	=51	=51	=51	=51	=51	=51	=51	=51	=51	=51	=51
2r	4BB/	.	2G\	.	4d\	.	4d\	.	2ryy	2ryy	2ryy	.	.	.	.
.	8.C/L	.	.	.	4c\	.	8.e\L	.	.	.	.	.	.	.	.
.	16E/Jk	.	.	.	.	.	16c\Jk	.	.	.	.	.	.	.	.
=52	=52	=52	=52	=52	=52	=52	=52	=52	=52	=52	=52	=52	=52	=52	=52
!	!LO:LB:g=original	!	!	!	!	!	!	!	!	!	!	!	!	!	!
4r	4G\	-son	4G\	-son	4B\	-son	4d\	-son	2ryy	2ryy	2ryy	.	.	.	.
4C/	8.C/	Ky-	4r	.	4r	.	4r	.	.	.	.	.	.	.	.
.	16C/	-ri-	.	.	.	.	.	.	.	.	.	.	.	.	.
=53	=53	=53	=53	=53	=53	=53	=53	=53	=53	=53	=53	=53	=53	=53	=53
!	!	!	!	!	!	!	!LO:TX:a:i:t=1	!	!	!	!	!	!	!	!
[2C/	[2C/	-e	4r	.	4r	.	2r	.	2ryy	2ryy	2ryy	2r	2r	4r	4r
.	.	.	8.E\	Ky-	8.G/	Ky-	.	.	.	.	.	.	.	4e\	4g\
.	.	.	16E\	-ri-	16G/	-ri-	.	.	.	.	.	.	.	.	.
=54	=54	=54	=54	=54	=54	=54	=54	=54	=54	=54	=54	=54	=54	=54	=54
!	!	!	!	!	!	!	!LO:LB:g=original	!	!	!	!	!	!	!LO:LB:g=original	!LO:LB:g=original
2C/]	2C/]	.	4F\	-e	4A/	-e	4r	.	2ryy	2ryy	2ryy	4r	4r	4f\	4a\
.	.	.	4E\	e-	4G/	e-	8.c\	Ky-	.	.	.	4e/	4cc\	4c\	4g\
.	.	.	.	.	.	.	16c\	-ri-	.	.	.	.	.	.	.
=55	=55	=55	=55	=55	=55	=55	=55	=55	=55	=55	=55	=55	=55	=55	=55
!	!	!	!	!	!LO:LB:g=original	!	!	!	!	!	!	!	!	!	!
!	!LO:SIC:o:s=:v:tekst słowny - brak pierwszego "e" w słowie "eleison"	!	!	!	!	!	!	!	!	!	!	!	!	!	!
4C/	4C/	.	2G\	-lei-	2G/	-lei-	[2d\	-e	2ryy	2ryy	2ryy	2g/	[2dd\	2g\	2g\
4BB/	4BB/	.	.	.	.	.	.	.	.	.	.	.	.	.	.
=56	=56	=56	=56	=56	=56	=56	=56	=56	=56	=56	=56	=56	=56	=56	=56
!LO:LB:g=original	!	!	!	!	!	!	!	!	!	!	!	!	!	!	!
4C/	4C/	lei-	2E\	.	4G/	.	4d\]	.	2ryy	2ryy	2ryy	2e/	4dd\]	4g\	4g\
4AA/	4AA/	.	.	.	4A/	.	4c\	e-	.	.	.	.	4cc\	4c\	4a\
=57	=57	=57	=57	=57	=57	=57	=57	=57	=57	=57	=57	=57	=57	=57	=57
!	!	!	!	!	!	!	!	!	!	!	!	!	!LO:LB:g=original	!	!
!	!	!	!	!	!	!	!	!	!	!	!	!LO:TX:a:i:t=1	!	!	!
[2D\	[2D\	.	2F\	.	4F/	.	4A\	-lei-	2ryy	2ryy	2ryy	2r	4a\	2f\	2a\
.	.	.	.	.	4A/	.	8.e\L	.	.	.	.	.	8.ee\L	.	.
.	.	.	.	.	.	.	16d\Jk	.	.	.	.	.	16dd\Jk	.	.
=58	=58	=58	=58	=58	=58	=58	=58	=58	=58	=58	=58	=58	=58	=58	=58
!	!	!	!	!	!	!	!	!	!	!	!	!LO:LB:g=original	!	!	!
4D\]	4D\]	.	4F\	.	4B\	.	4f\	.	2ryy	2ryy	2ryy	4b\	4dd\	4f\	4f\
4C\	4C\	.	4G\	.	[4c\	.	4e\	.	.	.	.	4cc\	4ee\	4e\	4g\
=59	=59	=59	=59	=59	=59	=59	=59	=59	=59	=59	=59	=59	=59	=59	=59
4F\	4F\	.	4G\	.	4c\]	.	2d\	.	2ryy	2ryy	2ryy	4cc\	2dd\	4f\	4a\
8.G\L	8.G\L	.	8.G\L	.	8.B\L	.	.	.	.	.	.	8.b\L	.	8.g\L	8.g\L
16F\Jk	16F\Jk	.	16A\Jk	.	16A\Jk	.	.	.	.	.	.	16a\Jk	.	16f\Jk	16a\Jk
=60	=60	=60	=60	=60	=60	=60	=60	=60	=60	=60	=60	=60	=60	=60	=60
4E\	4E\	-son	4G#X\	-son	4B\	-son	4e\	-son	2ryy	2ryy	2ryy	4e/	4ee\	4e\	4g#X\
4r	4r	.	8.G#\	Ky-	8.B\	Ky-	4r	.	.	.	.	4r	4r	4r	4r
.	.	.	16G#\	-ri-	16B\	-ri-	.	.	.	.	.	.	.	.	.
=61	=61	=61	=61	=61	=61	=61	=61	=61	=61	=61	=61	=61	=61	=61	=61
!LO:TX:a:i:t=1.	!	!	!	!	!	!	!	!	!	!	!	!LO:TX:a:i:t=1.	!LO:TX:a:i:t=1.	!LO:TX:a:i:t=1	!LO:TX:a:i:t=1
2r	4r	.	2G#X\	-e	2B\	-e	4r	.	2ryy	2ryy	2ryy	2r	2r	2r	2r
.	8.E\	Ky-	.	.	.	.	8.e\	Ky-	.	.	.	.	.	.	.
.	16E\	-ri-	.	.	.	.	16e\	-ri-	.	.	.	.	.	.	.
=62	=62	=62	=62	=62	=62	=62	=62	=62	=62	=62	=62	=62	=62	=62	=62
4r	4D\	-e	2Gn\	e-	4B\	.	4f\	-e	2ryy	2ryy	2ryy	4r	4r	4r	4r
4C/	4C\	e-	.	.	[4c\	e-	4e\	e-	.	.	.	4cc\	4ee\	4c/	4g\
=63	=63	=63	=63	=63	=63	=63	=63	=63	=63	=63	=63	=63	=63	=63	=63
!	!LO:LB:g=original	!	!	!	!	!	!	!	!	!	!	!	!	!	!
4F\	(4F\	-lei-	4A\	-lei-	4c\]	.	2d\	-lei-	2ryy	2ryy	2ryy	4cc\	2dd\	4f\	4a\
4G\	4G\)	.	4G\	.	4B\	-lei-	.	.	.	.	.	4b\	.	4g\	4g\
=64	=64	=64	=64	=64	=64	=64	=64	=64	=64	=64	=64	=64	=64	=64	=64
!	!	!	!	!	!	!	!LO:LB:g=original	!	!	!	!	!	!	!	!
*	*	*	*	*	*	*	*	*	*	*	*	*2\right	*	*	*
2E\	2E\	-son	2G\	.	[2c\	-son	[2g\	.	2ryy	2ryy	2ryy	[2cc\	[2gg\	2c/	2g\
=65	=65	=65	=65	=65	=65	=65	=65	=65	=65	=65	=65	=65	=65	=65	=65
2F\	2F\	e-	2A\	.	4c\]	.	4g\]	.	2ryy	2ryy	2ryy	4cc\]	4gg\]	2f\	2a\
.	.	.	.	.	4d\	e-	4f\	.	.	.	.	4dd\	4ff\	.	.
=66	=66	=66	=66	=66	=66	=66	=66	=66	=66	=66	=66	=66	=66	=66	=66
!	!	!	!	!	!LO:LB:g=original	!	!	!	!	!	!	!	!	!LO:LB:g=original	!
2G\	2G\	-lei-	[2G\	.	4c\	-lei-	4e\	.	2ryy	2ryy	2ryy	4cc\	4ee\	2g\	[2g\
.	.	.	.	.	4B\	.	4d\	.	.	.	.	4b\	4dd\	.	.
=67	=67	=67	=67	=67	=67	=67	=67	=67	=67	=67	=67	=67	=67	=67	=67
2E\	2E\	.	2G\]	.	2c\	.	[2g\	.	2ryy	2ryy	2ryy	[2cc\	[2gg\	2c/	2g\]
=68	=68	=68	=68	=68	=68	=68	=68	=68	=68	=68	=68	=68	=68	=68	=68
!	!	!	!LO:LB:g=original	!	!	!	!	!	!	!	!	!	!	!	!LO:LB:g=original
2F\	2F\	.	2A\	.	4c\	.	4g\]	.	2ryy	2ryy	2ryy	4cc\]	4gg\]	2f\	2a\
.	.	.	.	.	4d\	.	4f\	.	.	.	.	4dd\	4ff\	.	.
=69	=69	=69	=69	=69	=69	=69	=69	=69	=69	=69	=69	=69	=69	=69	=69
!LO:LB:g=original	!	!	!	!	!	!	!	!	!	!	!	!	!LO:LB:g=original	!	!
2G\	2G\	.	2G\	.	4c\	.	4e\	.	2ryy	2ryy	2ryy	4cc\	4ee\	2g\	2g\
.	.	.	.	.	4B\	.	4d\	.	.	.	.	4b\	4dd\	.	.
=70	=70	=70	=70	=70	=70	=70	=70	=70	=70	=70	=70	=70	=70	=70	=70
!	!	!	!	!	!	!	!	!	!	!	!	!LO:LB:g=original	!	!	!
8.c\L	4C/	-son	4E\	-son,	4c\	-son	4c\	-son	2ryy	2ryy	2ryy	8.cc\L	8.cc\L	4g\	8g\
.	.	.	.	.	.	.	.	.	.	.	.	.	.	.	8r
16G\K	.	.	.	.	.	.	.	.	.	.	.	16g\Jk	16g\Jk	.	.
8.E\	8r	.	8r	.	8r	.	8r	.	.	.	.	8.e/L	8.e/L	8r	8g\
.	8C/	e-	8E\	e-	8G\	e-	8c\	e-	.	.	.	.	.	8g\	8r
16C\Jk	.	.	.	.	.	.	.	.	.	.	.	16c/Jk	16c/Jk	.	.
=71	=71	=71	=71	=71	=71	=71	=71	=71	=71	=71	=71	=71	=71	=71	=71
2FF/	2C/	-lei-	2F\	-lei-	2A\	-lei-	[2c\	-lei-	2ryy	2ryy	2ryy	[2c/	[2cc\	2a\	2a\
=72	=72	=72	=72	=72	=72	=72	=72	=72	=72	=72	=72	=72	=72	=72	=72
4C/	4C/	-son	4E\	-son.	4G\	-son.	4c\]	-son.	2ryy	2ryy	2ryy	4c/]	4cc\]	4g\	4g\
4r	4r	.	4r	.	4r	.	4r	.	.	.	.	4r	4r	4r	4r
==	==	==	==	==	==	==	==	==	==	==	==	==	==	==	==
*-	*-	*-	*-	*-	*-	*-	*-	*-	*-	*-	*-	*-	*-	*-	*-
!!!system-decoration: [(s1,s2,s3,s4,s5,s6)]s7[(s8,s9,s10,s11)]s12
!!!RDF**kern: > = above
!!!RDF**kern: < = below
!!!EED: Leszek Kubiak
!!!EST: 2020-06-16
